src/img/bg/figureSmall.svg

<svg width="547" height="792" fill="none" xmlns="http://www.w3.org/2000/svg"><path d="M835.998 493.364c-49.617 59.662-151.937-13.746-296.957 22.684-125.603 31.567-131.138 107.975-232.099 106.482-73.759-1.077-155.031-41.81-200.847-114.945-50.526-80.636-34.72-164.255-30.21-184.561 20.118-91.079 84.843-140.35 107.69-157.196 94.128-69.361 201.73-60.02 253.35-55.565 193.906 16.799 404.117 150.198 416.742 300.126 1.671 19.628 4.728 56.034-17.669 82.975z" fill="url(#paint0_linear)"/><defs><linearGradient id="paint0_linear" x1="356.009" y1="742.124" x2="537.152" y2="151.875" gradientUnits="userSpaceOnUse"><stop stop-color="#F3F7FF"/><stop offset="1" stop-color="#DEEEFE"/></linearGradient></defs></svg>

<svg width="547" height="792" viewBox="0 0 547 792" fill="none" xmlns="http://www.w3.org/2000/svg">
<path d="M835.998 493.364C786.381 553.026 684.061 479.618 539.041 516.048C413.438 547.615 407.903 624.023 306.942 622.53C233.183 621.453 151.911 580.72 106.095 507.585C55.5688 426.949 71.3756 343.33 75.8844 323.024C96.003 231.945 160.728 182.674 183.575 165.828C277.703 96.4669 385.305 105.808 436.925 110.263C630.831 127.062 841.042 260.461 853.667 410.389C855.338 430.017 858.395 466.423 835.998 493.364Z" fill="url(#paint0_linear)"/>
<defs>
<linearGradient id="paint0_linear" x1="356.009" y1="742.124" x2="537.152" y2="151.875" gradientUnits="userSpaceOnUse">
<stop stop-color="#F3F7FF"/>
<stop offset="1" stop-color="#DEEEFE"/>
</linearGradient>
</defs>
</svg>
